X:33
T:Clarity, Brevity, & Tact
M:6/8
C:© Paul Gitlitz 2009
R:Jig
K:E
"E"e2B "E/C#"c2B|"E"e2B "E/C#"c2B|"E"eBB "F#m"fBB|"G#m"gBB "A"agf|!
"E"e2B "E/C#"c2B|"E"e2B "E/C#"c2B|"B"fbg "B7/F#"fdB|1"E"~e3 e3:|2"E"~e3 efg|!
|:"A"~a3 "F#m"agf|"E"~g3 "E/G#"gfe|"B/F#"f2b "A"a2g|"B"fdc "B7/D#"B2B|!
"E"eBB "B"fBB|"E"gBB "E/A"aBB|"E/G#"gfe "B7/F#"fed|1"E"~e3 "E"efg:|2"E"e6|]
